X: 3871
T: Black Rogue, The
R: jig
M: 6/8
K: Amixolydian
|GEE FED|GEE E2A|GEE FED|ECA, A,FA|
GEE FED|GEE ECE|DCD FDF|1 ECA, A,FA:|2 ECA, A,3||
|:ABc dcd|ecA GEE|cEE dcd|ecA AEA|
cec d2B|cBA BcA|GFE FED|ECA, A,3:|

